hosted/assets/icon/widgets/dark-mode/markdown.svg

<svg width="50" height="50" viewBox="0 0 50 50" fill="none" xmlns="http://www.w3.org/2000/svg">
<path fill-rule="evenodd" clip-rule="evenodd" d="M47 8.7H3C2.28203 8.7 1.7 9.28203 1.7 10V40C1.7 40.718 2.28203 41.3 3 41.3H47C47.718 41.3 48.3 40.718 48.3 40V10C48.3 9.28203 47.718 8.7 47 8.7ZM3 7C1.34315 7 0 8.34315 0 10V40C0 41.6569 1.34315 43 3 43H47C48.6569 43 50 41.6569 50 40V10C50 8.34315 48.6569 7 47 7H3Z" fill="white"/>
<path d="M38.8667 25.8235V19C38.8667 18.4477 38.419 18 37.8667 18H36.1334C35.5811 18 35.1334 18.4477 35.1334 19V25.8235H32.6448C31.7235 25.8235 31.2924 26.9638 31.9832 27.5734L36.3384 31.4162C36.7165 31.7498 37.2837 31.7498 37.6617 31.4162L42.0169 27.5734C42.7078 26.9638 42.2766 25.8235 41.3553 25.8235H38.8667Z" fill="#E75F63"/>
<path fill-rule="evenodd" clip-rule="evenodd" d="M36.1333 18.85C36.0505 18.85 35.9833 18.9172 35.9833 19V26.6735H32.6447C32.5965 26.6735 32.5722 26.6864 32.5573 26.6973C32.538 26.7114 32.5175 26.7359 32.5044 26.7705C32.4914 26.805 32.4905 26.837 32.4957 26.8603C32.4996 26.8784 32.5093 26.9041 32.5455 26.936L36.9007 30.7788C36.9574 30.8289 37.0425 30.8289 37.0992 30.7788L41.4544 26.936C41.4906 26.9041 41.5003 26.8784 41.5043 26.8603C41.5094 26.837 41.5086 26.805 41.4955 26.7705C41.4824 26.7359 41.4619 26.7114 41.4426 26.6973C41.4277 26.6864 41.4034 26.6735 41.3552 26.6735H38.0166V19C38.0166 18.9172 37.9495 18.85 37.8666 18.85H36.1333ZM34.2833 19C34.2833 17.9783 35.1116 17.15 36.1333 17.15H37.8666C38.8884 17.15 39.7166 17.9783 39.7166 19V24.9735H41.3552C43.0596 24.9735 43.8572 27.083 42.5792 28.2107L38.224 32.0536C37.5246 32.6706 36.4753 32.6706 35.776 32.0536L31.4207 28.2107C30.1427 27.083 30.9403 24.9735 32.6447 24.9735H34.2833V19Z" fill="white"/>
<path d="M9 32H10.7778C11.3301 32 11.7778 31.5523 11.7778 31V26.2581C11.7778 25.3142 12.9654 24.8958 13.557 25.6314L15.7208 28.3215C16.1211 28.8192 16.8789 28.8192 17.2792 28.3215L19.443 25.6314C20.0346 24.8958 21.2222 25.3142 21.2222 26.2581V31C21.2222 31.5523 21.6699 32 22.2222 32H24C24.5523 32 25 31.5523 25 31V19C25 18.4477 24.5523 18 24 18H21.6772C21.3882 18 21.1132 18.1251 20.9233 18.3431L17.2539 22.5541C16.8554 23.0115 16.1446 23.0115 15.7461 22.5541L12.0767 18.3431C11.8868 18.1251 11.6118 18 11.3228 18H9C8.44772 18 8 18.4477 8 19V31C8 31.5523 8.44772 32 9 32Z" fill="#E75F63"/>
<path fill-rule="evenodd" clip-rule="evenodd" d="M8.9999 18.85C8.91706 18.85 8.8499 18.9172 8.8499 19V31C8.8499 31.0828 8.91706 31.15 8.9999 31.15H10.7777C10.8605 31.15 10.9277 31.0828 10.9277 31V26.2581C10.9277 24.5118 13.1247 23.7379 14.2192 25.0986L16.383 27.7888C16.4431 27.8635 16.5567 27.8635 16.6168 27.7888L18.7806 25.0986C19.8751 23.7379 22.0721 24.5118 22.0721 26.2581V31C22.0721 31.0828 22.1393 31.15 22.2221 31.15H23.9999C24.0827 31.15 24.1499 31.0828 24.1499 31V19C24.1499 18.9172 24.0827 18.85 23.9999 18.85H21.6771C21.6338 18.85 21.5925 18.8688 21.564 18.9015L17.8947 23.1125C17.1573 23.9587 15.8425 23.9587 15.1051 23.1125L11.4358 18.9015C11.4073 18.8688 11.366 18.85 11.3227 18.85H8.9999ZM7.1499 19C7.1499 17.9783 7.97818 17.15 8.9999 17.15H11.3227C11.8575 17.15 12.3661 17.3814 12.7174 17.7846L16.3868 21.9957L15.746 22.5541L16.3868 21.9957C16.4466 22.0643 16.5532 22.0643 16.613 21.9957L20.2824 17.7846C20.6337 17.3814 21.1423 17.15 21.6771 17.15H23.9999C25.0216 17.15 25.8499 17.9783 25.8499 19V31C25.8499 32.0217 25.0216 32.85 23.9999 32.85H22.2221C21.2004 32.85 20.3721 32.0217 20.3721 31V26.2581C20.3721 26.2077 20.3586 26.1835 20.3478 26.1692C20.3334 26.1501 20.308 26.1294 20.272 26.1167C20.2359 26.104 20.2031 26.1042 20.18 26.11C20.1626 26.1145 20.1368 26.1248 20.1052 26.1641L17.9415 28.8543C17.2009 29.775 15.7989 29.775 15.0583 28.8543L12.8946 26.1641C12.863 26.1248 12.8372 26.1145 12.8198 26.11C12.7967 26.1042 12.7639 26.104 12.7278 26.1167C12.6918 26.1294 12.6664 26.1501 12.652 26.1692C12.6412 26.1835 12.6277 26.2077 12.6277 26.2581V31C12.6277 32.0217 11.7994 32.85 10.7777 32.85H8.9999C7.97817 32.85 7.1499 32.0217 7.1499 31V19Z" fill="white"/>
</svg>

<svg width="50" height="50" fill="none" xmlns="http://www.w3.org/2000/svg"><path fill-rule="evenodd" clip-rule="evenodd" d="M47 8.7H3A1.3 1.3 0 001.7 10v30A1.3 1.3 0 003 41.3h44a1.3 1.3 0 001.3-1.3V10A1.3 1.3 0 0047 8.7zM3 7a3 3 0 00-3 3v30a3 3 0 003 3h44a3 3 0 003-3V10a3 3 0 00-3-3H3z" fill="#fff"/><path d="M38.867 25.823V19a1 1 0 00-1-1h-1.734a1 1 0 00-1 1v6.823h-2.488c-.922 0-1.353 1.14-.662 1.75l4.355 3.843a1 1 0 001.324 0l4.355-3.843c.69-.61.26-1.75-.662-1.75h-2.488z" fill="#E75F63"/><path fill-rule="evenodd" clip-rule="evenodd" d="M36.133 18.85a.15.15 0 00-.15.15v7.674h-3.338a.138.138 0 00-.088.023.161.161 0 00-.053.073.16.16 0 00-.008.09.135.135 0 00.05.076l4.355 3.843a.15.15 0 00.198 0l4.355-3.843a.138.138 0 00.05-.076.16.16 0 00-.008-.09.161.161 0 00-.053-.073.138.138 0 00-.088-.023h-3.338V19a.15.15 0 00-.15-.15h-1.734zm-1.85.15a1.85 1.85 0 011.85-1.85h1.734a1.85 1.85 0 011.85 1.85v5.974h1.638c1.705 0 2.502 2.109 1.224 3.237l-4.355 3.843a1.85 1.85 0 01-2.448 0l-4.355-3.843c-1.278-1.128-.48-3.237 1.224-3.237h1.638V19z" fill="#fff"/><path d="M9 32h1.778a1 1 0 001-1v-4.742c0-.944 1.187-1.362 1.779-.627l2.164 2.69a1 1 0 001.558 0l2.164-2.69c.592-.735 1.78-.317 1.78.627V31a1 1 0 001 1H24a1 1 0 001-1V19a1 1 0 00-1-1h-2.323a1 1 0 00-.754.343l-3.67 4.211a1 1 0 01-1.507 0l-3.67-4.21a1 1 0 00-.753-.344H9a1 1 0 00-1 1v12a1 1 0 001 1z" fill="#E75F63"/><path fill-rule="evenodd" clip-rule="evenodd" d="M9 18.85a.15.15 0 00-.15.15v12c0 .083.067.15.15.15h1.778a.15.15 0 00.15-.15v-4.742c0-1.746 2.197-2.52 3.291-1.16l2.164 2.69a.15.15 0 00.234 0l2.164-2.69c1.094-1.36 3.291-.586 3.291 1.16V31c0 .083.067.15.15.15H24a.15.15 0 00.15-.15V19a.15.15 0 00-.15-.15h-2.323a.15.15 0 00-.113.051l-3.67 4.212a1.85 1.85 0 01-2.789 0l-3.67-4.212a.15.15 0 00-.112-.051H9zM7.15 19A1.85 1.85 0 019 17.15h2.323a1.85 1.85 0 011.394.635l3.67 4.21-.641.56.64-.56a.15.15 0 00.227 0l3.67-4.21a1.85 1.85 0 011.394-.635H24A1.85 1.85 0 0125.85 19v12A1.85 1.85 0 0124 32.85h-1.778a1.85 1.85 0 01-1.85-1.85v-4.742c0-.05-.013-.075-.024-.089a.163.163 0 00-.076-.052.163.163 0 00-.092-.007.145.145 0 00-.075.054l-2.163 2.69a1.85 1.85 0 01-2.884 0l-2.163-2.69c-.032-.04-.058-.05-.075-.054a.163.163 0 00-.092.007.163.163 0 00-.076.052.144.144 0 00-.024.09V31a1.85 1.85 0 01-1.85 1.85H9A1.85 1.85 0 017.15 31V19z" fill="#fff"/></svg>
